X:5976
T:Gan Ainm
R:Reel
C:
S:
H:
N:
D:
Z:Adrian Scahill
M:4/4
L:1/8
K:G
Bcde fddc|dggf g3a|bgag fdde|1 fdcA G3A:|2 fdcA G2ga||\
bgag fdda|bgaf g3a|bgag fdde|fdcA G2ga|\
bgag fddda|bgab c'2 ba|(3bc'b ag fdde|fdcA G4||
% These tunes have been compiled and transcribed by Adrian Scahill. 
% They are free for personal use only, and may not be published 
% or reproduced for profit. 
% 
% This file may not be included on a web page for download without
% permission from me. 
%
% I have not generally included ornamentation or variations - and each
% tune is notated as closely as possible to the player's performance. 
% Following from this I have not tried to 'correct' what may be variations,
% wayward versions, instrument-specific quirks etc. 
% 
% I have listed the sources that I know or remember, and have included
% a discography where relevant. 
%
% Last Updated: August 1999.
%
% Questions, Info: Email - adrian@continuo.freeserve.co.uk
% 
%
